X:91
T:Gan Ainm
R:Jig (Slide)
S:Jim Mulqueeny, Clare (fiddle).
D:A mysterious tape
H:'c's and 'f's very mobile
H:Slightly strange sequence of parts. Below is what is actually fully played.
Q:400
M:6/8
Z:Bernie Stocks
K:G
G2D GBd | edc (3BcBA | G2D GBd | e2f g2D | G3-GBd | gfe dBA | BGE GAB | cdc (3BcBA ||
|: BGE EDE | GFE DB,D | BGE GAB | cdc (3BcBA | BGE EDE | GFE DB,D | GBG AGA | BGG G2A :|
G2D GBd | edc (3BcBA | G2D GBd | e2f g2D | G2D GBd | edc (3BcBA | BGE GAB | cdc (3BcBA |
G2D GBd | edc (3BcBA | G2D GBd | e2f g2D | G3-GBd | gfe dBA | BGE GAB | cdc (3BcBA ||
<end>
<start>
